svgs/sharp-solid/text-width.svg

<svg xmlns="http://www.w3.org/2000/svg" viewBox="0 0 448 512"><!--! Font Awesome Pro 6.6.0 by @fontawesome - https://fontawesome.com License - https://fontawesome.com/license (Commercial License) Copyright 2024 Fonticons, Inc. --><path d="M32 32L0 32 0 64l0 64 0 32 64 0 0-32 0-32 128 0 0 128-32 0 0 64 32 0 64 0 32 0 0-64-32 0 0-128 128 0 0 32 0 32 64 0 0-32 0-64 0-32-32 0L224 32 32 32zM0 384l96 96 32 0 0-64 192 0 0 64 32 0 96-96-96-96-32 0 0 64-192 0 0-64-32 0L0 384z"/></svg>

<svg xmlns="http://www.w3.org/2000/svg" viewBox="0 0 448 512"><!--! Font Awesome Pro 6.4.2 by @fontawesome - https://fontawesome.com License - https://fontawesome.com/license (Commercial License) Copyright 2023 Fonticons, Inc. --><path d="M32 32H0V64v64 32H64V128 96H192l0 128H160v64h32 64 32V224H256l0-128H384v32 32h64V128 64 32H416 224 32zM0 384l96 96h32V416H320v64h32l96-96-96-96H320v64H128V288H96L0 384z"/></svg>
